Catalina-light/actions/22/edit-find-replace.svg

<?xml version="1.0" encoding="UTF-8" standalone="no"?>
<svg
   xmlns:dc="http://purl.org/dc/elements/1.1/"
   xmlns:cc="http://creativecommons.org/ns#"
   xmlns:rdf="http://www.w3.org/1999/02/22-rdf-syntax-ns#"
   xmlns:svg="http://www.w3.org/2000/svg"
   xmlns="http://www.w3.org/2000/svg"
   xmlns:sodipodi="http://sodipodi.sourceforge.net/DTD/sodipodi-0.dtd"
   xmlns:inkscape="http://www.inkscape.org/namespaces/inkscape"
   width="22"
   height="22"
   version="1.1"
   id="svg9"
   sodipodi:docname="edit-find-replace.svg"
   inkscape:version="0.92.4 (unknown)">
  <metadata
     id="metadata13">
    <rdf:RDF>
      <cc:Work
         rdf:about="">
        <dc:format>image/svg+xml</dc:format>
        <dc:type
           rdf:resource="http://purl.org/dc/dcmitype/StillImage" />
        <dc:title />
      </cc:Work>
    </rdf:RDF>
  </metadata>
  <sodipodi:namedview
     pagecolor="#ffffff"
     bordercolor="#666666"
     borderopacity="1"
     objecttolerance="10"
     gridtolerance="10"
     guidetolerance="10"
     inkscape:pageopacity="0"
     inkscape:pageshadow="2"
     inkscape:window-width="1920"
     inkscape:window-height="1016"
     id="namedview11"
     showgrid="true"
     inkscape:zoom="21.454545"
     inkscape:cx="-1.1353612"
     inkscape:cy="7.2328778"
     inkscape:window-x="0"
     inkscape:window-y="27"
     inkscape:window-maximized="1"
     inkscape:current-layer="svg9">
    <inkscape:grid
       type="xygrid"
       id="grid833" />
  </sodipodi:namedview>
  <defs
     id="defs3">
    <style
       id="current-color-scheme"
       type="text/css">
   .ColorScheme-Text { color:#565656; } .ColorScheme-Highlight { color:#5294e2; }
  </style>
  </defs>
  <path
     style="color:#000000;font-style:normal;font-variant:normal;font-weight:normal;font-stretch:normal;font-size:medium;line-height:normal;font-family:sans-serif;font-variant-ligatures:none;font-variant-position:normal;font-variant-caps:normal;font-variant-numeric:normal;font-variant-alternates:normal;font-feature-settings:normal;text-indent:0;text-align:start;text-decoration:none;text-decoration-line:none;text-decoration-style:solid;text-decoration-color:#000000;letter-spacing:normal;word-spacing:normal;text-transform:none;writing-mode:lr-tb;direction:ltr;baseline-shift:baseline;text-anchor:start;white-space:normal;shape-padding:0;clip-rule:nonzero;display:inline;overflow:visible;visibility:visible;opacity:1;isolation:auto;mix-blend-mode:normal;color-interpolation:sRGB;color-interpolation-filters:linearRGB;solid-color:#000000;solid-opacity:1;fill:#000000;fill-opacity:0.68999999;fill-rule:nonzero;stroke:none;stroke-width:4.88007021;stroke-linecap:round;stroke-linejoin:round;stroke-miterlimit:4;stroke-dasharray:none;stroke-dashoffset:0;stroke-opacity:1;marker:none;color-rendering:auto;image-rendering:auto;shape-rendering:auto;text-rendering:auto;enable-background:accumulate"
     d="M 14.81096,2.5385156 6.5258025,11.533761 9.2446301,13.983327 17.503576,5.0190589 Z m -4.551237,0.1858621 c -4.0379519,0 -7.3201048,3.2824226 -7.3201048,7.3201053 0,1.246646 0.3135671,2.422091 0.8649734,3.450362 L 4.1191274,12.79667 4.5885482,12.286741 A 6.1000874,6.1000874 0 0 1 4.1596357,10.044483 6.1000874,6.1000874 0 0 1 10.259723,3.9443952 6.1000874,6.1000874 0 0 1 12.027795,4.208891 L 12.926129,3.2343068 C 12.098901,2.9095071 11.201126,2.7243777 10.259723,2.7243777 Z M 16.91263,7.006353 16,8 a 6.1000874,6.1000874 0 0 1 0.359811,2.044483 6.1000874,6.1000874 0 0 1 -6.100088,6.100087 6.1000874,6.1000874 0 0 1 -1.5655301,-0.212073 l -0.5385234,0.583797 -0.5957116,0.328832 c 0.8362372,0.333044 1.7458661,0.519462 2.6997651,0.519462 1.688404,0 3.231082,-0.590378 4.47022,-1.553617 l 3.493254,3.493254 1.296268,-1.296268 -3.493252,-3.493254 c 0.963218,-1.239173 1.553614,-2.781928 1.553614,-4.47022 0,-1.0848229 -0.242342,-2.1113592 -0.667197,-3.03813 z M 5.7084861,12.42018 4.8911696,13.3066 3.3089594,16.826064 4.2072927,17.650529 7.5837864,15.787143 8.3725085,14.929318 Z"
     id="path4116-3"
     inkscape:connector-curvature="0" />
</svg>

<svg width="22" height="22" version="1.1" xmlns="http://www.w3.org/2000/svg">
<defs>
<style id="current-color-scheme" type="text/css">.ColorScheme-Text { color:#565656; } .ColorScheme-Highlight { color:#5294e2; }</style>
</defs>
<path d="m14.811 2.5385-8.2852 8.9952 2.7188 2.4496 8.2589-8.9643zm-4.5512 0.18586c-4.038 0-7.3201 3.2824-7.3201 7.3201 0 1.2466 0.31357 2.4221 0.86497 3.4504l0.31454-0.69818 0.46942-0.50993a6.1001 6.1001 0 0 1-0.42891-2.2423 6.1001 6.1001 0 0 1 6.1001-6.1001 6.1001 6.1001 0 0 1 1.7681 0.2645l0.89833-0.97458c-0.82723-0.3248-1.725-0.50993-2.6664-0.50993zm6.6529 4.282-0.91263 0.99365a6.1001 6.1001 0 0 1 0.35981 2.0445 6.1001 6.1001 0 0 1-6.1001 6.1001 6.1001 6.1001 0 0 1-1.5655-0.21207l-0.53852 0.5838-0.59571 0.32883c0.83624 0.33304 1.7459 0.51946 2.6998 0.51946 1.6884 0 3.2311-0.59038 4.4702-1.5536l3.4933 3.4933 1.2963-1.2963-3.4933-3.4933c0.96322-1.2392 1.5536-2.7819 1.5536-4.4702 0-1.0848-0.24234-2.1114-0.6672-3.0381zm-11.204 5.4138-0.81732 0.88642-1.5822 3.5195 0.89833 0.82446 3.3765-1.8634 0.78872-0.85782z" color="#000000" color-rendering="auto" fill-opacity=".69" image-rendering="auto" shape-rendering="auto" solid-color="#000000" style="font-feature-settings:normal;font-variant-alternates:normal;font-variant-caps:normal;font-variant-ligatures:none;font-variant-numeric:normal;font-variant-position:normal;isolation:auto;mix-blend-mode:normal;shape-padding:0;text-decoration-color:#000000;text-decoration-line:none;text-decoration-style:solid;text-indent:0;text-transform:none;white-space:normal"/>
</svg>
